!! J.S. Bach; Fugue from 'Fughetta on 'Allein Gott in der Hoeh sei Ehr'
!! BWV 677 for organ.
!! Encoded from Bach Neue Ausgabe Saemtlicher Werke,
!! Basel: Baerenreiter Kassel, Serie IV: Orgelwerke, Band 4; p.41, 3 voices.
!! Performed by Marie-Claire Alain, J.S. Bach Organ Works Vol. 10;
!! Musical Heritage Society, No. 723/4
!! Performed duration: 0:48, tempo: quarter-note equals MM 100.0
**kern	**kern	**kern
*M4/4	*M4/4	*M4/4
=1	=1	=1
1r	1r	4r
.	.	8r
.	.	8a'
.	.	8cc#'
.	.	8a'
.	.	8f#'
.	.	8dd'
=2	=2	=2
1r	4r	8ee'
.	.	8b'
.	8r	8cc#'
.	8e'	8g#'
.	8f#'	8a
.	8d'	16b
.	.	16cc#
.	8B'	[4dd
.	8g#'	.
=3	=3	=3
4r	8a'	16dd]
.	.	16cc#
.	8e'	16dd
.	.	16ee
8r	8f#'	16dd
.	.	16cc#
8A'	8c#'	16b
.	.	16a
8c#'	8e	8g#
8A'	16f#	16a
.	16g#	16b
8F#'	[4a	16cc#
.	.	16dd
8d'	.	16ee
.	.	16ff#
=4	=4	=4
8e'	16a]	4b
.	16g#	.
8B'	16a	.
.	16b	.
8c#'	16a	[4ee
.	16g#	.
8G#'	16f#	.
.	16e	.
8A	[4f#	16ee]
.	.	16cc#
16B	.	16b
16c#	.	16a
[4d	16f#]	16b
.	16e	16cc#
.	16f#	16dd
.	16g#	16ee
=5	=5	=5
16d]	8a	8ff#
16c#	.	.
16d	8b	8gg#
16e	.	.
16d	8cc#	[4aa
16c#	.	.
16B	8ff#	.
16A	.	.
8B	4dd	16aa]
.	.	16gg#
16c#	.	16aa
16d	.	16bb
8e	4b	16aa
.	.	16gg#
8E	.	16ff#
.	.	16ee
=6	=6	=6
8F#	16r	[4dd
.	16a	.
8D	16g#	.
.	16f#	.
8BB	16g#	8.dd]
.	16a	.
8G#	[8b	.
.	.	16cc#
8A	4b]	16dd
.	.	16cc#
8E	.	16dd
.	.	16ee
8F#	[4a	16dd
.	.	16cc#
8C#	.	16b
.	.	16a
=7	=7	=7
8D	4a]	16b
.	.	16dd
8BB	.	16ee
.	.	16ff#
8E	4g#	16ee
.	.	16dd
8EE	.	16cc#
.	.	16b
4AA	16r	4cc#
.	16a	.
.	16e	.
.	16c#	.
16r	8A	4r
16E	.	.
16F#	[8c#	.
16G#	.	.
=8	=8	=8
4A	8c#]	2r
.	[8B	.
4G#	16B]	.
.	16A	.
.	16B	.
.	16c#	.
16r	8d	4r
16F#	.	.
16G#	8c#	.
16A	.	.
16G#	8B	8r
16F#	.	.
16E	8e	[8g#
16D	.	.
=9	=9	=9
4C#	8A	8g#]
.	16d	[8f#
.	16c#	.
4BB	[4d	16f#]
.	.	16e
.	.	16f#
.	.	16g#
4AA	16d]	8a
.	16c#	.
.	16d#	8g#
.	16e	.
4BB	16d#	8f#
.	16c#	.
.	16B	8b
.	16A	.
=10	=10	=10
16C#	4G#	8e
16D#	.	.
[8E	.	16a
.	.	16g#
16E]	4F#	[4a
16D#	.	.
16C#	.	.
16D#	.	.
8E	4E	16a]
.	.	16g#
8EE	.	16a
.	.	16b
8r	4r	16a
.	.	16g#
[8E	.	16f#
.	.	16e
=11	=11	=11
8E]	2r	8f#
8D#	.	16b
.	.	16a#
16D#	.	[4b
16C#	.	.
16D#	.	.
16E	.	.
8F#	4r	8b]
8En	.	16a#
.	.	16g#
8D#	8r	16a#
.	.	16cc#
8G#	[8f#	16b#
.	.	16dd#
=12	=12	=12
4C#	8f#]	16cc#
.	.	16g#
.	[8e	16cc#
.	.	16bn
[4F#	16e]	4an
.	16d#	.
.	16e	.
.	16f#	.
16F#]	8g#	8b
16E#	.	.
16F#	8f#	16a
16G#	.	16b
16A	8en	8cc#
16B	.	.
16c#	8a	[8cc#
16A	.	.
=13	=13	=13
8F#	8d#	8cc#]
8B	16g#	[8b
.	16f#	.
8En	8g#	16b]
.	.	16a
8A	[8gn	16b
.	.	16cc#
8Dn	16g]	8ddn
.	16f#	.
8D#	16g#	8cc#
.	16a	.
[4E	16g#	8b
.	16f#	.
.	16e	8ee
.	16dn	.
=14	=14	=14
16E]	8c#	8a
16E	.	.
16F#	[8a	16dd
16Gn	.	16cc#
16F#	16a]	[4dd
16E	16cc#	.
16D	16b	.
16C#	16a	.
8BB	8g#	16dd]
.	.	16cc#
8G#	[8e	16dd
.	.	16ee
[4A	8e]	16dd
.	.	16cc#
.	16d	16b
.	16c#	16a
=15	=15	=15
4A]	8d	16b
.	.	16dd
.	4B	16ee
.	.	16ff#
4G#	.	16ee
.	.	16dd
.	[8e	16cc#
.	.	16b
4A	16e]	16cc#
.	16gn	16ee
.	16f#	16dd
.	16e	16cc#
4r	16f#	16dd
.	16g#	16ee
.	16a	16ff#
.	16b	16gg
=16	=16	=16
4r	16cc#	8aa
.	16a	.
.	16g#	8r
.	16f#	.
8r	16e	4r
.	16d	.
8AA	16c#	.
.	16B	.
8C#	8A	16r
.	.	16e
8AA	8r	16d#
.	.	16c#
8FF#	4r	16d#
.	.	16e
8D#	.	16f#
.	.	16g#
=17	=17	=17
8E	4r	16a
.	.	16g#
8BB	.	16f#
.	.	16e
16C#	8r	8ee
16AA	.	.
16BB	8e	[8cc#
16C#	.	.
16Dn	8f#	8cc#]
16E	.	.
16F#	8dn	[8b
16A	.	.
16G#	8B	16b]
16F#	.	16a
16E	8g#	16b
16G#	.	16cc#
=18	=18	=18
16F#	8a	8dd
16G#	.	.
16A	8e	8cc#
16AA	.	.
16G#	8fn	8b
16AA	.	.
16Gn	8c#	8ee
16AA	.	.
8F#	16r	8a
.	16d	.
8B	16e	16dd
.	16f#	16cc#
8G#	16e	[4dd
.	16d	.
8E	16c#	.
.	16B	.
=19	=19	=19
8A	[2A	16dd]
.	.	16cc#
8E	.	16b
.	.	16a
8F#	.	16b
.	.	16cc#
8C#	.	16dd
.	.	16ee
8D#	16A]	8ff#
.	16f#	.
8BB	16g#	8dd
.	16a	.
4E	16g#	8b
.	16f#	.
.	16e	8gg#
.	16d	.
=20	=20	=20
4A	4c#	4aa
4r	4r	4r
2r	2r	2r
==	==	==
*-	*-	*-
